X:360
T:Trip to Herve's
M:C|
L:1/8
Q:120
C:Michael McGoldrick
R:Reel (Key of D)
K:D
"D"FAAF ABde | f2af dafd | "G"B2dB AFDE | "A"FEED E2DE |
"D"FAAF ABde | f2af dafd | "G"~B2dB "D"AFEG |1 "A"~F2DE "D"D2AG :|2 "A"~F2DE "D"DEFG ||
"G"AB~B2 d2BA | "D"EFFE FGFE | DEFG A2DE | FGA2 FGAF |
"G"AB~B2 d2BA | "D"EFFE FGFE | DEFG ABAG | "A"FGEG "D"FDEF |
"G"GABc d2BA | "D"EFFE FGFE | DEFG A2DE | FGA2 FGA2 |
"G"B2F "D" A2EF2 | D"A"E2D EFGA | "G"B2F"D"A2EF2 | D"A"E2D EFGA |]
